!!!COM: Bach, Johann Sebastian
!!!CDT: 1685/02/21/-1750/07/28/
!!!OTL@@DE:	An Wasserfl&uuml;ssen Babylon
!!!SCT: BWV 267
!!!PC#:	5
!!!AGN: chorale
**harm	**kern	**kern	**kern	**kern
*	*ICvox	*ICvox	*ICvox	*ICvox
*	*Ibass	*Itenor	*Ialto	*Isoprn
*	*I"Bass	*I"Tenor	*I"Alto	*I"Soprano
*>[A,A,B]	*>[A,A,B]	*>[A,A,B]	*>[A,A,B]	*>[A,A,B]
*>norep[A,B]	*>norep[A,B]	*>norep[A,B]	*>norep[A,B]	*>norep[A,B]
*>A	*>A	*>A	*>A	*>A
*	*	*oclefC4	*oclefC3	*oclefC1
*	*clefF4	*clefGv2	*clefG2	*clefG2
*k[f#]	*k[f#]	*k[f#]	*k[f#]	*k[f#]
*G:	*G:	*G:	*G:	*G:
*M4/4	*M4/4	*M4/4	*M4/4	*M4/4
*met(c)	*met(c)	*met(c)	*met(c)	*met(c)
*MM100	*MM100	*MM100	*MM100	*MM100
I	4G	4B	4g	4dd
=1	=1	=1	=1	=1
IV	4C	4c	4g	4ee
V7	4D	4A	4f#	4cc
vi	4E	4e	4g	4b
V6	4F#	4A	4f#	4dd
=2	=2	=2	=2	=2
ii7	4A	4e	4g	4cc
V7	4D	4d	4f#	4cc
I;	4G;	4d;	4g;	4b;
V6	4F#	4d	4a	4a
=3	=3	=3	=3	=3
I	4GL	4d	4g	4b
IV6	4E	4G	4g	4cc
I6	4BB	4B	4g	4dd
IV	4C	4e	4g	4cc
=4	=4	=4	=4	=4
V	4D	4A	4f#	4a
V7	4D	4c	4f#	4a
I;	4GG;	4B;	4d;	4g;
*>B	*>B	*>B	*>B	*>B
I	4G	4B	4d	4g
=5	=5	=5	=5	=5
V6	4F#	4A	4d	4a
iii6	4D	4d	4f#	4b
IV6	4E	4G	4e	4cc
V6	4F#	4A	4d	4a
=6	=6	=6	=6	=6
I	4G	4G	4d	4b
V7	4D	4F#	4c	4a
I;	4GG;	4G;	4B;	4g;
IV	4C	4G	4e	4g
=7	=7	=7	=7	=7
C:V	8GL	8GL	8dL	8bL
V2	8FJ	8GJ	8dJ	8bJ
I6	4E	4G	4e	4cc
V65	4BB	4G	4f	4dd
I	4C	4G	4e	4ee
=8	=8	=8	=8	=8
D:ii	4E	4G	4gL	4b
V7	4AA	4A	4g	4cc#
I;	4D;	4A;	4f#;	4dd;
G:I	4G	4G	4d	4b
=9	=9	=9	=9	=9
I6	4B	4d	4g	4dd
IV	4c	4c	4g	4ee
V6	4F#	4A	4a	4dd
a:V6	4G#	4e	4b	4b
=10	=10	=10	=10	=10
i	4A	4e	4a	4cc
i	4AA	4e	4a	4cc
V;	4E;	4e;	4g#;	4b;
V65	4GG#	4d	4b	4ee
=11	=11	=11	=11	=11
i	4AA	4c	4a	4ee
i6	8CL	8AL	8eL	8eeL
i	8AAJ	8AJ	8cJ	8eeJ
iv6	4F	4A	4d	4a
iv	8DL	8AL	8fL	8ddL
iio6	8DJ	8BJ	8fJ	8ddJ
=12	=12	=12	=12	=12
V(64)	4E	4A	4e	4cc
V7	4EE	4G#	4d	4b
i;	4AA;	4A;	4c;	4a;
G:viio6	4AA	4F#	4a	4cc
=13	=13	=13	=13	=13
I6	8BBL	8GnL	8dL	8bL
d:vii%7	8C#J	8GnJ	8eJ	8bJ
i	4D	4d	4f	4a
ii%2	4D	4B-	4e	4g
V65	4C#	4A	4e	4g
=14	=14	=14	=14	=14
i	4D	4A	4d	4f
V7	4AA	4G	4c#	4e
I;	4D;	4F#;	4d;	4d;
G:iii	4BB	4F#	4d	4d
=15	=15	=15	=15	=15
vi	4E	4G	4B	4g
V	4D	4d	4F#	4a
I	4G	4d	4G	4b
vi	4E	4e	4g	4b
=16	=16	=16	=16	=16
iii	4BB	4d	4f#	4dd
I	4GG	4d	4g	4b
ii65	4C	4e	4g	4a
ii7	4AA	4c	4g	4cc
=17	=17	=17	=17	=17
V(54)	4D	4d	4g	4a
V7	4D	4c	4f#	4a
I;	4GG;	4B;	4d;	4g;
==	==	==	==	==
*-	*-	*-	*-	*-
!!!YOR1: 371 vierstimmige Choralges&auml;nge von Johann Sebastian Bach, 
!!!YOR2: 4th ed. by Alfred D&ouml;rffel (Leipzig: Breitkopf und H&auml;rtel, 
!!!YOR2: c.1875). 178 pp. Plate "V.A.10".  reprint: J.S. Bach, 371 Four-Part 
!!!YOR4: Chorales (New York: Associated Music Publishers, Inc., c.1940).
!!!SMS: B&H, 4th ed, Alfred D&ouml;rffel, c.1875, plate V.A.10
!!!EED:  Craig Stuart Sapp
!!!EEV:  2009/05/22
